X:12
T: doedel you do
M: 6/8
L: 1/8
R: tovercirkel
K: Bbmaj
|:B2B ABc|d2 B3 B|A2A ABc|d2d dcB|B2B ABc|d2 B3 B|A2A Bcd|B6:|
|:c2c cBA|F2 F2 AB|c2c cBA|ABc cBA|ABc cBA|F2 F2 AB|c2c cBA|B6:|
